img/icons/Icons SM/phone.svg

<svg width="28" height="23" viewBox="0 0 28 23" fill="none" xmlns="http://www.w3.org/2000/svg">
<path d="M20.6968 22.9651C23.1138 22.9651 24.7574 22.4001 26.249 21.078C26.3457 20.9876 26.4424 20.8859 26.5391 20.7955C27.3539 20.0497 27.7545 19.27 27.7545 18.5467C27.7545 17.6992 27.202 16.9308 25.9728 16.2415L21.857 13.891C20.5587 13.1565 19.0533 13.1 17.8931 14.0492L16.8711 14.8855C16.512 15.1793 16.1667 15.2019 15.7524 14.9646C15.0066 14.5578 13.5978 13.5407 12.631 12.7497C11.6504 11.9474 10.656 11.0434 10.1173 10.3541C9.82729 10.0038 9.85491 9.73256 10.214 9.43876L11.236 8.60254C12.3962 7.65332 12.3271 6.4216 11.4156 5.35938L8.48758 1.93541C7.67271 0.963592 6.6921 0.511583 5.65625 0.500283C4.77232 0.488982 3.83315 0.816689 2.9216 1.4721C2.8111 1.5512 2.70061 1.6303 2.59012 1.70941C0.946568 2.94113 0.242188 4.26326 0.242188 6.3199C0.242188 9.65346 2.60393 13.5859 7.20312 17.3263C11.7747 21.0441 16.5258 22.9651 20.6968 22.9651ZM20.6968 21.078C17.1749 21.1232 12.7967 19.0778 8.95717 15.959C5.08998 12.8401 2.52107 9.12235 2.57631 6.2408C2.60393 5.03167 3.12877 3.96945 4.16462 3.22364C4.27511 3.15584 4.35798 3.09933 4.46847 3.03153C4.85519 2.76033 5.26953 2.61342 5.65625 2.61342C6.05678 2.61342 6.41588 2.74903 6.6921 3.08803L9.27483 6.2634C9.60631 6.6476 9.62012 7.08831 9.13672 7.47252L8.03181 8.36524C6.98214 9.20145 7.07882 10.1846 7.74177 10.953C8.48758 11.8005 9.88253 13.1 11.0565 14.0492C12.3133 15.0663 14.0259 16.3206 15.0204 16.9082C15.9595 17.4506 17.1611 17.5297 18.1832 16.6709L19.2743 15.7669C19.73 15.3714 20.2687 15.3827 20.7521 15.6426L24.564 17.7218C24.9922 17.9478 25.1441 18.2303 25.1441 18.558C25.1441 18.8744 24.9646 19.2135 24.6331 19.5412C24.5502 19.6203 24.4812 19.6881 24.3983 19.7785C23.4867 20.6373 22.1885 21.0667 20.6968 21.078Z" fill="#594C42"/>
</svg>

<svg width="28" height="23" fill="none" xmlns="http://www.w3.org/2000/svg"><path d="M20.697 22.965c2.417 0 4.06-.565 5.552-1.887.097-.09.193-.192.29-.282.815-.746 1.215-1.526 1.215-2.25 0-.847-.552-1.615-1.781-2.305l-4.116-2.35c-1.298-.735-2.804-.791-3.964.158l-1.022.837c-.359.293-.704.316-1.119.079-.745-.407-2.154-1.424-3.121-2.215-.98-.803-1.975-1.707-2.514-2.396-.29-.35-.262-.621.097-.915l1.022-.836c1.16-.95 1.091-2.181.18-3.244L8.488 1.935C7.673.964 6.692.512 5.656.5c-.884-.011-1.823.317-2.734.972-.11.08-.221.158-.332.237C.947 2.941.242 4.263.242 6.32c0 3.334 2.362 7.267 6.961 11.007 4.572 3.718 9.323 5.64 13.494 5.64Zm0-1.887c-3.522.045-7.9-2-11.74-5.119-3.867-3.119-6.436-6.837-6.38-9.718.027-1.21.552-2.272 1.588-3.017.11-.068.193-.125.303-.192.387-.272.802-.419 1.188-.419.4 0 .76.136 1.036.475l2.583 3.175c.331.385.345.825-.138 1.21l-1.105.892c-1.05.836-.953 1.82-.29 2.588.746.848 2.14 2.147 3.314 3.096 1.257 1.017 2.97 2.272 3.964 2.86.94.542 2.141.62 3.163-.238l1.091-.904c.456-.396.995-.384 1.478-.124l3.812 2.079c.428.226.58.508.58.836 0 .316-.18.655-.51.983a4.43 4.43 0 0 0-.236.238c-.911.858-2.21 1.288-3.701 1.299Z" fill="#594C42"/></svg>
